X: 3281
T: DONAGH ADEE
%R: jig
B: James Kerr "Merry Melodies" v.3 p.31 #281
Z: 2016 John Chambers <jc:trillian.mit.edu>
M: 6/8
L: 1/8
K: C
|:\
c2c c2c | edc efg | c2c c2c | Bdc BAG |\
c2c c2c | edc efg | a2g f2e | dcB c3 :|
|:\
g2g g2g | gag edc | d2d d2d | ded BAG |\
g2g g2g | gag edc | a2g f2e | dcB c3 :|

%%sep 1 1 500
%%sep 1 1 500

